images/cart.svg

<svg width="15" height="14" fill="none" xmlns="http://www.w3.org/2000/svg"><path fill-rule="evenodd" clip-rule="evenodd" d="M1.16667.10791C.79847.10791.5.40639.5.77458c0 .36819.29848.66666.66667.66666h1.77127l.46743 2.33539a.66396.66396 0 0 0 .01063.0531l.96738 4.83333.00012.00056a1.82553 1.82553 0 0 0 .64571 1.06582 1.82555 1.82555 0 0 0 1.17262.40326h5.62067a1.82572 1.82572 0 0 0 1.1727-.40326 1.82587 1.82587 0 0 0 .6458-1.06638l.001-.00499.9271-4.86144a.6669.6669 0 0 0-.1412-.54985.66678.66678 0 0 0-.5137-.24171H4.61072L4.1381.64374C4.07574.33217 3.80215.1079 3.4844.1079H1.16667Zm4.52431 8.29444-.81339-4.06394h8.23081l-.7756 4.06686a.4923.4923 0 0 1-.1737.28555.4923.4923 0 0 1-.3181.10871V8.7994H6.19614v-.00012l-.01277.00025a.49218.49218 0 0 1-.4922-.39622l-.00019-.00096ZM4.55739 12.3633c0-.6879.55771-1.2456 1.24568-1.2456.68798 0 1.24569.5577 1.24569 1.2456 0 .688-.55771 1.2457-1.24569 1.2457-.68797 0-1.24568-.5577-1.24568-1.2457Zm6.37331 0c0-.6879.5577-1.2456 1.2457-1.2456.688 0 1.2457.5577 1.2457 1.2456 0 .688-.5577 1.2457-1.2457 1.2457-.688 0-1.2457-.5577-1.2457-1.2457Z" fill="#2D3440"/></svg>

<svg width="15" height="14" viewBox="0 0 15 14" fill="none" xmlns="http://www.w3.org/2000/svg">
<path fill-rule="evenodd" clip-rule="evenodd" d="M1.16667 0.10791C0.798477 0.10791 0.5 0.406387 0.5 0.774577C0.5 1.14277 0.798477 1.44124 1.16667 1.44124H2.93794L3.40537 3.77663C3.40821 3.79458 3.41176 3.81229 3.416 3.82973L4.38338 8.66306L4.3835 8.66362C4.46706 9.08363 4.69562 9.4609 5.02921 9.72944C5.36111 9.99662 5.77595 10.1392 6.20183 10.1327H11.8225C12.2484 10.1392 12.6633 9.99662 12.9952 9.72944C13.3289 9.46078 13.5575 9.08329 13.641 8.66306L13.641 8.66306L13.642 8.65807L14.5691 3.79663C14.6063 3.60146 14.5545 3.39986 14.4279 3.24678C14.3012 3.09369 14.1129 3.00507 13.9142 3.00507H4.61072L4.1381 0.643739C4.07574 0.332167 3.80215 0.10791 3.4844 0.10791H1.16667ZM5.69098 8.40235L4.87759 4.33841H13.1084L12.3328 8.40527C12.31 8.51779 12.2485 8.61881 12.1591 8.69082C12.0691 8.76326 11.9565 8.80174 11.841 8.79953L11.841 8.7994H11.8282H6.19614V8.79928L6.18337 8.79953C6.06787 8.80174 5.95528 8.76326 5.8653 8.69082C5.77531 8.61839 5.71368 8.51661 5.69117 8.40331L5.69098 8.40235ZM4.55739 12.3633C4.55739 11.6754 5.1151 11.1177 5.80307 11.1177C6.49105 11.1177 7.04876 11.6754 7.04876 12.3633C7.04876 13.0513 6.49105 13.609 5.80307 13.609C5.1151 13.609 4.55739 13.0513 4.55739 12.3633ZM10.9307 12.3633C10.9307 11.6754 11.4884 11.1177 12.1764 11.1177C12.8644 11.1177 13.4221 11.6754 13.4221 12.3633C13.4221 13.0513 12.8644 13.609 12.1764 13.609C11.4884 13.609 10.9307 13.0513 10.9307 12.3633Z" fill="#2D3440"/>
</svg>
